img/404.svg

<svg width="486" height="373" viewBox="0 0 486 373" fill="none" xmlns="http://www.w3.org/2000/svg">
<path d="M252 91.8115L254.859 168C254.859 168 259.862 165.823 274.871 162.195C286.307 157.842 286.307 157.842 294.169 156.39C294.169 156.39 295.599 120.11 296.313 117.933C297.028 115.756 303.461 112.854 317.755 112.854C332.765 112.854 338.483 115.756 338.483 118.659C338.483 121.561 339.912 147.683 339.912 147.683C339.912 147.683 373.505 142.604 407.097 140.427C441.404 138.25 480 140.427 480 140.427C480 140.427 478.571 128.092 472.853 110.677C466.42 91.0859 461.417 80.9275 461.417 80.9275C461.417 80.9275 429.969 72.9458 354.207 77.2994C293.455 80.2019 252 91.8115 252 91.8115Z" fill="white" fill-opacity="0.05"/>
<path d="M436.757 37.0785C424.641 20.448 412.524 8.15581 412.524 8.15581C412.524 8.15581 324.148 -12.8132 197.284 12.4942C101.78 31.294 25.5196 73.955 25.5196 73.955C25.5196 73.955 18.3925 88.4163 10.5526 116.616C4.13815 140.477 2 160 2 160C2 160 29.0832 144.816 82.5369 123.124C168.776 87.6932 203.699 80.4626 203.699 80.4626C203.699 80.4626 205.837 43.5861 206.549 41.4169C207.262 38.5246 218.666 36.3554 229.356 36.3554C240.047 36.3554 252.876 38.5247 252.876 40.6939C252.876 42.8631 253.589 71.0627 253.589 71.0627C253.589 71.0627 312.744 61.6628 359.071 61.6628C424.64 60.9397 456 68.1704 456 68.1704C456 68.1704 448.873 54.4321 436.757 37.0785Z" fill="white" fill-opacity="0.05"/>
<path d="M0.028508 193.676C0.028508 193.676 -0.684158 214.713 5.01716 240.102C10.0058 262.59 17.1325 280 17.1325 280C17.1325 280 62.0303 252.434 103.365 231.398C156.815 203.832 196.724 186.422 196.724 186.422L201 103C201 103 159.665 114.607 90.5369 147.25C22.8338 178.443 0.028508 193.676 0.028508 193.676Z" fill="white" fill-opacity="0.05"/>
<path d="M255 189.231L258 262C258 262 266.25 258.325 274.5 255.385C282.75 251.709 290.25 248.769 290.25 248.769L294 176C294 176 286.5 178.205 273 182.615C264.75 185.556 261.75 186.291 255 189.231Z" fill="white" fill-opacity="0.05"/>
<path d="M342 165.522C342 165.522 371.793 157.397 405.133 154.442C454.788 150.01 482.453 152.965 482.453 152.965C482.453 152.965 486 169.954 486 186.943C486 200.977 484.581 211.318 484.581 211.318C484.581 211.318 466.138 212.057 447.695 214.272C432.798 215.75 413.645 218.704 413.645 218.704C413.645 218.704 412.227 192.113 412.227 189.158C412.227 186.943 405.842 184.727 393.783 184.727C383.143 184.727 376.049 186.943 376.049 188.42C376.049 190.636 376.049 186.943 374.631 223.875C374.631 223.875 367.537 226.091 361.153 227.568C354.768 229.045 345.547 232 345.547 232L342 165.522Z" fill="white" fill-opacity="0.05"/>
<path d="M195 214L190.714 294.945C171.429 307.232 170.714 307.955 140.714 327.468C110 347.705 78.5714 373 78.5714 373C78.5714 373 70 366.495 51.4286 343.368C37.8571 326.745 30 310.845 30 310.845C30 310.845 68.5714 282.659 117.143 254.473C165 227.732 195 214 195 214Z" fill="white" fill-opacity="0.05"/>
<path d="M261 287.504L263.8 368L285.5 353.496L289 273C289 273 286.2 273.725 273.6 280.252C265.2 285.328 261 287.504 261 287.504Z" fill="white" fill-opacity="0.05"/>
<path d="M413 234.527L414.429 290C414.429 290 437.286 279.914 447.286 275.591C458.714 271.269 470.143 266.226 470.143 266.226C470.143 266.226 473.714 256.86 477.286 247.495C482.286 231.645 483 223 483 223C483 223 469.429 223.72 447.286 227.323C430.857 230.204 413 234.527 413 234.527Z" fill="white" fill-opacity="0.05"/>
</svg>

<svg width="486" height="373" fill="none" xmlns="http://www.w3.org/2000/svg"><path d="M252 91.811L254.859 168s5.003-2.177 20.012-5.805c11.436-4.353 11.436-4.353 19.298-5.805 0 0 1.43-36.28 2.144-38.457.715-2.177 7.148-5.079 21.442-5.079 15.01 0 20.728 2.902 20.728 5.805 0 2.902 1.429 29.024 1.429 29.024s33.593-5.079 67.185-7.256c34.307-2.177 72.903 0 72.903 0s-1.429-12.335-7.147-29.75c-6.433-19.591-11.436-29.75-11.436-29.75s-31.448-7.981-107.21-3.628C293.455 80.202 252 91.811 252 91.811z" fill="#fff" fill-opacity=".05"/><path d="M436.757 37.078c-12.116-16.63-24.233-28.922-24.233-28.922s-88.376-20.97-215.24 4.338C101.78 31.294 25.52 73.955 25.52 73.955s-7.128 14.461-14.967 42.661C4.138 140.477 2 160 2 160s27.083-15.184 80.537-36.876c86.239-35.43 121.162-42.661 121.162-42.661s2.138-36.877 2.85-39.046c.713-2.892 12.117-5.062 22.807-5.062 10.691 0 23.52 2.17 23.52 4.339 0 2.17.713 30.369.713 30.369s59.155-9.4 105.482-9.4C424.64 60.94 456 68.17 456 68.17s-7.127-13.738-19.243-31.092z" fill="#fff" fill-opacity=".05"/><path d="M.029 193.676s-.713 21.037 4.988 46.426C10.006 262.59 17.132 280 17.132 280s44.898-27.566 86.233-48.602c53.45-27.566 93.359-44.976 93.359-44.976L201 103s-41.335 11.607-110.463 44.25C22.834 178.443.029 193.676.029 193.676zM255 189.231L258 262s8.25-3.675 16.5-6.615c8.25-3.676 15.75-6.616 15.75-6.616L294 176s-7.5 2.205-21 6.615c-8.25 2.941-11.25 3.676-18 6.616zm87-23.709s29.793-8.125 63.133-11.08c49.655-4.432 77.32-1.477 77.32-1.477S486 169.954 486 186.943c0 14.034-1.419 24.375-1.419 24.375s-18.443.739-36.886 2.954c-14.897 1.478-34.05 4.432-34.05 4.432s-1.418-26.591-1.418-29.546c0-2.215-6.385-4.431-18.444-4.431-10.64 0-17.734 2.216-17.734 3.693 0 2.216 0-1.477-1.418 35.455 0 0-7.094 2.216-13.478 3.693-6.385 1.477-15.606 4.432-15.606 4.432L342 165.522zM195 214l-4.286 80.945c-19.285 12.287-20 13.01-50 32.523C110 347.705 78.571 373 78.571 373S70 366.495 51.43 343.368C37.857 326.745 30 310.845 30 310.845s38.571-28.186 87.143-56.372C165 227.732 195 214 195 214zm66 73.504L263.8 368l21.7-14.504L289 273s-2.8.725-15.4 7.252c-8.4 5.076-12.6 7.252-12.6 7.252zm152-52.977L414.429 290s22.857-10.086 32.857-14.409c11.428-4.322 22.857-9.365 22.857-9.365l7.143-18.731C482.286 231.645 483 223 483 223s-13.571.72-35.714 4.323c-16.429 2.881-34.286 7.204-34.286 7.204z" fill="#fff" fill-opacity=".05"/></svg>
